X:78
T:Paddy Fahy's Jig
R:jig
M:6/8
K:G
"G"DGA B3|"C"cBc "D7"d2g|"G"gfd Bcd|"D7"cAG F3|
"G"DGA B3|"C"cBc "D7"d2g|"G"gfd Bcd|1 "D7"cAF "G"G3:|2 "D7"cAF "G"GBd||
|:"G"g2d "D7"fga|"G"gdd Bcd|"Am"cAA f3|"D7"agf def|
"G"g2a bag|"D"fdg fdc|"Em"B3 "Am"cAd|1"D7" cAF "G"GBd:|2"D7"cAF "G"G3|]
